X:4
T:John Morris Rankin's
R:jig
C:Andrea Beaton
D:Andrea Beaton, Cuts
Z:Paul Stewart Cranford (P.S.C.), <http://www.cranfordpub.com>
L:1/8
M:6/8
Q:300
K:Ador
e2 a ede|ABA A2 B|G2 g edB|dBG GBd|
e2 a ede|ABA A2 B|G2 g edB|[1ABA ABd:|[2ABA Aea||
|:g2 c e2 a|gec cBc|d2 g B2 g|dBG Gea|
g2 c e2 a|gec cBA|G2 g edB|[1ABA Aea:|[2ABA ABd|]
